X:107
T:O Little Town Of Bethlehem
C:Brooks - Redner
L:1/4
M:4/4
Q:1/4=95
P:BABABABAB
V:S
%%MIDI program 1 19 #Church Organ
V:A clef=treble
%%MIDI program 2 60 #French Horn
V:T clef=treble_8
%%MIDI program 3 57 #Trombone
%%score (S A) T
%
K:Dmaj
P:A
[V:S]
F | F F ^E F | A G B, E | D (C/2D/2) E A, | F3 F |
F F B A | A G B, E | D (C/2D/2) F E | D3 F |
F F E D | C2 C C | B, C D E | F3 F |
%
[V:A]
A, | A, A, ^G, A, | =C B, G, B, | A, G, G, G, | A,3 A, |
A, D ^D D | E B, G, B, | A, A, C C | D3 D |
D D C B,| ^A,2 A, A, | B, C D B, | C3 D |
%
w:1~O lit- tle town of Beth- le hem, how still we see thee lie! A- bove thy deep and dream- less sleep the si- lent stars go by. Yet in thy dark streets shin- eth the e- ver last ing Light; The 
w:2~For Christ is born of Ma_ry And ga-thered all a-bove While mor-tals sleep, the an-gels keep Their watch of won-dering love O morn-ing stars to-ge-ther Pro-claim the ho-ly birth And 
w:3~How si-lent-ly, how si-lent-ly the won-drous gift is giv'n! So God im-parts to hu-man hearts the bles-sings of His heav'n. No ear may hear His co-ming, but in this world of sin, where
w:4~O ho-ly Child of Beth-le-hem De-scend to us, we pray Cast out our sin and en-ter in Be born to us to-day We hear the Chris-tmas an-gels The great glad ti-dings tell O 
%
[V:T]
D, | D, D, D, D, | ^D, E, E, G, | F, (E,/2F,/2) G, G, | F,3 D, |
D, F, F, B, | B, B, B, G, | F, (^E,/2F,/2) A, G, | F,3 A, |
A, F, G, ^G, | ^A,2 A, F, | B,, C, D, B, | ^A,3 =A, |
P:B
[V:S]
F F ^E F | A G B, B | A D F3/2 E/2 | D3 x/|]
[V:A]
A, A, ^G, A, | B, B, G, (B,/2C/2) | D ^G, A,3/2 =G,/2 | F,3 x/|]
w: hopes and fears of all the years are_ met in thee to- night.
w: prai-ses sing to God the King And_ Peace to men on earth
w: meek souls will re-ceive Him still the_ dear Christ en-ters in.
w: come to us, a-bide with us Our_ Lord Em-man-u-el
[V:T]
A, F, D, D, | ^D, E, E, G, | F, (E,/2D,/2) D,3/2 C,/2 | D,3 x/|]

